X:1
T:Sinner, Heed the Voice of Mercy
T:Arthur M. Phillips
T:Sinner, Heed the Voice of Mercy
T:Public Domain
T:Public Domain
C:Arthur M. Phillips
Z:Public Domain
%%score ( 1 2 ) ( 3 4 )
L:1/8
M:4/4
K:F
V:1 treble 
V:2 treble 
V:3 bass 
V:4 bass 
V:1
 F>[FG] | [FA]3 [FB] [FA]2 [EG]2 | [EG]2 F4 [FA]>[FB] | [Fc]3 [Fd] [Fc]2 [FA]2 | [EG]6 [Ec]>[GB] | %5
w: 1.~Sin- ner,|the voice of mer-|cy, As the days|go- ing by; While|the lamp of|
w: 2.~Sweet the|pel tones are fall-|ing, And the Sav-|wait- ing stands; Hear|the voice of|
w: 3.~Stream- ing|from Cal- v’ry’s mount-|ain Flows sal- va-|full and free; In|this heal- ing,|
 [FA]3 [Cc] [DF]2 [FA]2 | [Fc]2 [FB]4 [Fd]>[Fd] | [Fc]3 F [FA]2 [EG]2 | F6 ||"^Refrain" F>G | %10
w: life is burn- ing,|To the Lord for|ref- uge fly. Come|Christ,|come to|
w: Je- sus call- ing,|See His wound- ed|side and hands. *|||
w: cleans- ing fount- ain,|Sin- ner, there is|life for thee. *|||
 (z2 F>F [FA]>)G F>A | z F E>E F2 A>G | z2 D>D [DF]>F G>A | z E E>E E2 A>B | z F E>E F2 G>A | %15
w: * * * Him; He will|* * * * * don|* * * ery sin; Mer-|* * * * voice calls|* * * * day; Haste,|
w: |||||
w: |||||
 z2 D>D D2 [Fd]>[Fd] | [Fc]3 F [FA]2 [CG]2 | [CF]6 |] %18
w: * * * sin- ner,|* a- way. *||
w: |||
w: |||
V:2
 F3/2 x/ | x8 | x2 F4 x2 | x8 | x8 | x8 | x8 | x3 F x4 | F6 || x2 | A4- x4 | c6 x2 | F4- x4 | %13
w: heed||are|||||to|O||par-|ev-|cy’s|
w: Gos-||ior|||||||||||
w: down||tion|||||||||||
 G6 x2 | c6 x2 | B6 x2 | x3 F x4 | x6 |] %18
w: to-|O|haste|||
w: |||||
w: |||||
V:3
 [F,A,]>[F,B,] | [F,C]3 [F,D] [F,C]2 [C,B,]2 | [C,B,]2 [F,A,]4 F,>[F,G,] | %3
w: ~ ~|~ ~ ~ ~|~ ~ ~ ~|
 [F,A,]3 [F,B,] [F,A,]2 [F,C]2 | [C,C]6 [C,G,]>[C,C] | [F,C]3 [E,G,] [D,A,]2 [C,_E]2 | %6
w: ~ ~ ~ ~|~ ~ ~|~ ~ ~ ~|
 [B,,D]2 [B,,D]4 [B,,B,]>[B,,B,] | [C,A,]3 [D,A,] [C,C]2 [C,B,]2 | [F,,F,A,]6 || z2 | %10
w: ~ ~ ~ ~|~ ~ ~ ~|Come||
 z2 [F,C]>[F,C] [F,C]3/2 z/ z2 | z [F,A,] [C,G,]>[C,G,] [F,A,]2 z2 | %12
w: to Christ, O|come to Him; He|
 z2 [D,A,]>[D,A,] [D,A,]3/2 z/ z2 | z [C,C] [C,C]>[C,C] [C,C]2 z2 | %14
w: will cleanse your|ev- ery sin; calls|
 z [F,A,] [C,G,]>[C,G,] [F,A,]2 z2 | z2 [B,,F,]>[B,,F,] [B,,F,]2 [B,,B,]>[B,,B,] | %16
w: to- day, * *||
 [C,A,]3 [D,A,] [C,C]2 [C,B,]2 | [F,,F,A,]6 |] %18
w: ||
V:4
 x2 | x8 | x6 F,3/2 x/ | x8 | x8 | x8 | x8 | x8 | x6 || x2 | x8 | x8 | x8 | x8 | x8 | x8 | x8 | %17
w: ||~|||||||||||||||
 x6 |] %18
w: |

